icons/1_Primary/LabyMod.svg

<svg width="1024" height="1024" fill="none" xmlns="http://www.w3.org/2000/svg"><g clip-path="url(#a)"><path d="M512 1024c282.77 0 512-229.23 512-512S794.77 0 512 0 0 229.23 0 512s229.23 512 512 512Z" fill="#9ABEFF"/><path d="m760.17 537-54-126.4 6.58-115.67 3.17-55.69L670.77 272l-77 56-74.87-20.57-6.9-1.94-6.94 1.91-74.87 20.6-77-56-45.11-32.81 3.17 55.69 6.58 115.67-54 126.45-7.83 18.26 15.49 12.56 96.08 77.89 31.08 25.2 18.31 55 3.4 10.22 9.24 4.9 70 37.15 12.43 6.6 12.43-6.6 70-37.15 9.23-4.9 3.4-10.22 18.3-55 31.08-25.2 96.08-77.89L768 555.26 760.17 537Zm-14.81 22.32-96.08 77.89L623 658.47l.88-17.88-.86 1.71-26.72 80.34-1.94 5.84-5.28 2.8-70 37.15-7.08 3.77-7.1-3.77-70-37.15-5.28-2.8-1.94-5.84L401 642.29l-.86-1.71.88 17.88-26.28-21.3-96.08-77.89-8.85-7.17 4.47-10.46 55.09-128.83-6.73-118.3-1.81-31.82 25.78 18.75 81.33 59.15 80.13-22 4-1.09 4 1.09 80.13 22 81.33-59.15 25.78-18.75-1.81 31.82-6.73 118.3 55.09 128.83 4.47 10.46-8.97 7.22Zm-9.53-11.72-56.11-131.28-39.51 11.78 23.69-26.35 22.3-106.35.1-1.73-87.15 63.38L512 333.12l-87.15 23.94-87.15-63.38 22.66 108.08 23.69 26.35-39.71-11.85v-.07l-56.18 131.37 96.08 77.89-2.72-55.21 33.36 66.07 27.12 81.6 61.31 32.55v-23.18l-22.51-12.51v-27l17.09-7.61 14.11-6.25 14.11 6.28 17.09 7.61v27l-22.52 12.51v23.18L582 717.91l27.14-81.61 33.36-66.07-2.73 55.21 96.06-77.84Zm-269.23 6.03-55.27-17-17.62-37.3 78.17 32.33 13.4 41.88-18.68-19.91Zm144.08-17-55.27 17-18.69 19.95 13.4-41.88 78.17-32.33-17.61 37.26Z" fill="#fff"/></g><defs><clipPath id="a"><path fill="#fff" d="M0 0h1024v1024H0z"/></clipPath></defs></svg>

<svg width="1024" height="1024" viewBox="0 0 1024 1024" fill="none" xmlns="http://www.w3.org/2000/svg">
<g clip-path="url(#clip0_2_2649)">
<path d="M512 1024C794.77 1024 1024 794.77 1024 512C1024 229.23 794.77 0 512 0C229.23 0 0 229.23 0 512C0 794.77 229.23 1024 512 1024Z" fill="#9ABEFF"/>
<path d="M760.17 537L706.17 410.6L712.75 294.93L715.92 239.24L670.77 272L593.77 328L518.9 307.43L512 305.49L505.06 307.4L430.19 328L353.19 272L308.08 239.19L311.25 294.88L317.83 410.55L263.83 537L256 555.26L271.49 567.82L367.57 645.71L398.65 670.91L416.96 725.91L420.36 736.13L429.6 741.03L499.6 778.18L512.03 784.78L524.46 778.18L594.46 741.03L603.69 736.13L607.09 725.91L625.39 670.91L656.47 645.71L752.55 567.82L768 555.26L760.17 537ZM745.36 559.32L649.28 637.21L623 658.47L623.88 640.59L623.02 642.3L596.3 722.64L594.36 728.48L589.08 731.28L519.08 768.43L512 772.2L504.9 768.43L434.9 731.28L429.62 728.48L427.68 722.64L401 642.29L400.14 640.58L401.02 658.46L374.74 637.16L278.66 559.27L269.81 552.1L274.28 541.64L329.37 412.81L322.64 294.51L320.83 262.69L346.61 281.44L427.94 340.59L508.07 318.59L512.07 317.5L516.07 318.59L596.2 340.59L677.53 281.44L703.31 262.69L701.5 294.51L694.77 412.81L749.86 541.64L754.33 552.1L745.36 559.32ZM735.83 547.6L679.72 416.32L640.21 428.1L663.9 401.75L686.2 295.4L686.3 293.67L599.15 357.05L512 333.12L424.85 357.06L337.7 293.68L360.36 401.76L384.05 428.11L344.34 416.26V416.19L288.16 547.56L384.24 625.45L381.52 570.24L414.88 636.31L442 717.91L503.31 750.46V727.28L480.8 714.77V687.77L497.89 680.16L512 673.91L526.11 680.19L543.2 687.8V714.8L520.68 727.31V750.49L582 717.91L609.14 636.3L642.5 570.23L639.77 625.44L735.83 547.6ZM466.6 553.63L411.33 536.63L393.71 499.33L471.88 531.66L485.28 573.54L466.6 553.63ZM610.68 536.63L555.41 553.63L536.72 573.58L550.12 531.7L628.29 499.37L610.68 536.63Z" fill="white"/>
</g>
<defs>
<clipPath id="clip0_2_2649">
<rect width="1024" height="1024" fill="white"/>
</clipPath>
</defs>
</svg>
